X:1
T: The Braes of Busby
C:
R:Strathspey
Q:128
K:F
M:4/4
L:1/16
|:F2|DG3 G3A B3A G3F|CF3 F3G A2c2 BAGF|G3A B3c d3c B3d|cBAG F3A BG3 G2:|
|:A2|B3c d3B f3B d3B|A3c f3d c3A F3A|B3c d3B f3B d3B|cA3 F3A BG3 G2:|
|:f2|g4 B3g d2ga b3g|f4 c3f c2fg a3f|g4 d3g d3c B3d|cBAG F3A BG3 G2:|
A2|Bd3 G3B G2Bc d3B|Ac3 F3A F2AB c3A|Bd3 G3B G2Bc d3B|cA3 F3A BG3 G2|
Bd3 G3B G2Bc d3B|Ac3 F3A F2AB c3A|B3d fb3 fd3 B3d|cBAG F3A BG3 G2||
